build/svg/cmd/lc_selectdb.svg

<svg xmlns="http://www.w3.org/2000/svg" viewBox="0 0 24 24"><path d="M12 11v10l3.2-4H20z" fill="#fff" stroke="#fff" stroke-width="2" stroke-linejoin="round"/><path d="M12 11v10l3.2-4H20z" fill="#232629"/><path fill="#fff" fill-rule="evenodd" d="M4 8h3v11H4z"/><path fill="#a6d74f" fill-rule="evenodd" d="M4 4h15v3H4z"/><path d="M3 5v13c0 2 1 2 3 2h2V8h12V5c0-2-1-2-3-2H6C4 3 3 3 3 5zm1 0c0-1 1-1 2-1h1v3H4zm4-1h3v3H8zm4 0h3v3h-3zm4 0h1c1 0 2 0 2 1v2h-3zM4 8h3v3H4zm0 4h3v3H4zm0 4h3v3H6c-1 0-2 0-2-1z" fill="#6d6d6d" fill-rule="evenodd"/></svg>

<?xml version="1.0" encoding="UTF-8" standalone="no"?>
<svg
   xmlns:dc="http://purl.org/dc/elements/1.1/"
   xmlns:cc="http://creativecommons.org/ns#"
   xmlns:rdf="http://www.w3.org/1999/02/22-rdf-syntax-ns#"
   xmlns:svg="http://www.w3.org/2000/svg"
   xmlns="http://www.w3.org/2000/svg"
   xmlns:sodipodi="http://sodipodi.sourceforge.net/DTD/sodipodi-0.dtd"
   xmlns:inkscape="http://www.inkscape.org/namespaces/inkscape"
   viewBox="0 0 24 24"
   version="1.1"
   id="svg6"
   sodipodi:docname="lc_selectdb.svg"
   inkscape:export-filename="/home/jupiter007/Libreoffice yaru theme fullcolor/build/cmd/lc_selectdb.png"
   inkscape:export-xdpi="96"
   inkscape:export-ydpi="96"
   inkscape:version="0.92.5 (2060ec1f9f, 2020-04-08)">
  <metadata
     id="metadata12">
    <rdf:RDF>
      <cc:Work
         rdf:about="">
        <dc:format>image/svg+xml</dc:format>
        <dc:type
           rdf:resource="http://purl.org/dc/dcmitype/StillImage" />
      </cc:Work>
    </rdf:RDF>
  </metadata>
  <defs
     id="defs10" />
  <sodipodi:namedview
     pagecolor="#ffffff"
     bordercolor="#666666"
     borderopacity="1"
     objecttolerance="10"
     gridtolerance="10"
     guidetolerance="10"
     inkscape:pageopacity="0"
     inkscape:pageshadow="2"
     inkscape:window-width="1920"
     inkscape:window-height="1011"
     id="namedview8"
     showgrid="true"
     inkscape:zoom="27.812867"
     inkscape:cx="7.3535577"
     inkscape:cy="10.089522"
     inkscape:window-x="0"
     inkscape:window-y="32"
     inkscape:window-maximized="1"
     inkscape:current-layer="svg6">
    <inkscape:grid
       type="xygrid"
       id="grid832" />
  </sodipodi:namedview>
  <path
     style="opacity:1;fill:#ffffff;fill-opacity:1;stroke:#ffffff;stroke-width:2;stroke-linejoin:round;stroke-miterlimit:4;stroke-dasharray:none"
     id="path834"
     d="m 12,11 v 10 l 3.199219,-4 H 20 Z"
     inkscape:connector-curvature="0" />
  <path
     d="m 12,11 v 10 l 3.199219,-4 H 20 Z"
     id="path4"
     style="fill:#232629;fill-opacity:1"
     inkscape:connector-curvature="0" />
  <rect
     style="opacity:1;fill:#ffffff;fill-opacity:1;fill-rule:evenodd;stroke:none;stroke-width:2;stroke-linecap:butt;stroke-linejoin:round;stroke-miterlimit:4;stroke-dasharray:none;stroke-opacity:1"
     id="rect850"
     width="3"
     height="11"
     x="4.0000005"
     y="8.000001" />
  <rect
     style="opacity:1;fill:#a6d74f;fill-opacity:1;fill-rule:evenodd;stroke:none;stroke-width:2;stroke-linecap:butt;stroke-linejoin:round;stroke-miterlimit:4;stroke-dasharray:none;stroke-opacity:1"
     id="rect852"
     width="15"
     height="3"
     x="4.0000005"
     y="4" />
  <path
     style="opacity:1;fill:#6d6d6d;fill-opacity:1;fill-rule:evenodd;stroke:none;stroke-width:2;stroke-linecap:butt;stroke-linejoin:round;stroke-miterlimit:4;stroke-dasharray:none;stroke-opacity:1"
     d="m 3,5 v 3 10 c 0,2 0.9999999,2 2.9999999,2 H 8 V 8 H 20 V 5 C 20,3 19,3 17,3 H 8 5.9999999 C 3.9999999,3 3,3 3,5 Z m 0.9999999,0 c 0,-1 1,-1 2,-1 h 1 v 3 h -3 z M 8,4 h 3 V 7 H 8 Z m 4,0 h 3 v 3 h -3 z m 4,0 h 1 c 1,0 2,0 2,1 V 7 H 16 Z M 3.9999999,8 h 3 v 3 h -3 z m 0,4 h 3 v 3 h -3 z m 0,4 h 3 v 3 h -1 c -1,0 -2,0 -2,-1 z"
     id="rect824"
     inkscape:connector-curvature="0"
     sodipodi:nodetypes="cccccccccccccccccccccccccccccccccccccccccccccccccc" />
</svg>
